X: 18211
T: Humours Of Glynn, The
R: jig
M: 6/8
K: Dmajor
|:def A2A|DFA AFA|def A2A|DFA B2A|
def A2A|DFA AFD|GBG FAF|EFA B2 A:|
|:d2 e fdB|c2 d ecA|d2 e fdB|AFA B2A|
d2 e fdB|c2 d ecA|dcB cAF|EFA B2A|
d2 e fdB|c2 d ecA|d2 e fdB|AFA ABc
dfd cec|BdB AFD|GBG FAF|EFA B2 A||

